X: 9697
T: Decade Five
R: reel
M: 4/4
K: Cmajor
|:E3 F EDCD|ECB,C A,B,B,A,|G,A,CE FA,EC|FA,EF DAGF|
ECEF DGFD|CEDC ACBc|GCGA FCEF|DCB,D C2 (3DEG:|
|:c3 BG2 CG|AGFc BAGF|ECEA GFEF|GFEF D2 CB,|
CDEG cGEG|BAFB dFcB|ACAG FCFE|DCB,D C2 z2:|

